; generated by Slic3r Prusa Edition 1.40.1-beta+win64 on 2018-07-03 at 19:26:33

; 

; external perimeters extrusion width = 0.45mm
; perimeters extrusion width = 0.45mm
; infill extrusion width = 0.45mm
; solid infill extrusion width = 0.45mm
; top infill extrusion width = 0.40mm
; first layer extrusion width = 0.42mm

M107
M115 U3.2.1 ; tell printer latest fw version
M201 X1000 Y1000 Z200 E5000 ; sets maximum accelerations, mm/sec^2
M203 X200 Y200 Z12 E120 ; sets maximum feedrates, mm/sec
M204 S1250 T1250 ; sets acceleration (S) and retract acceleration (T)
M205 X10 Y10 Z0.4 E2.5 ; sets the jerk limits, mm/sec
M205 S0 T0 ; sets the minimum extruding and travel feed rate, mm/sec
M83  ; extruder relative mode
M104 S215 ; set extruder temp
M140 S60 ; set bed temp
M190 S60 ; wait for bed temp
M109 S215 ; wait for extruder temp
G28 W ; home all without mesh bed level
G80 ; mesh bed leveling
G1 Y-3.0 F1000.0 ; go outside print area
G92 E0.0
G1 X60.0 E9.0  F1000.0 ; intro line
G1 X100.0 E12.5  F1000.0 ; intro line
G92 E0.0
M221 S95
M900 K30; Filament gcode
G21 ; set units to millimeters
G90 ; use absolute coordinates
M83 ; use relative distances for extrusion
;BEFORE_LAYER_CHANGE
G92 E0.0
;0.2


G1 E-0.80000 F2100.00000
G1 Z0.600 F10800.000
;AFTER_LAYER_CHANGE
;0.2
G1 X36.395 Y55.197
G1 Z0.200
G1 E0.80000 F2100.00000
M204 S1000
G1 F1800
G1 X36.974 Y53.853 E0.04590
G1 X37.397 Y53.176 E0.02501
G1 X37.959 Y52.479 E0.02810
G1 X38.742 Y51.736 E0.03383
G1 X39.474 Y51.209 E0.02829
G1 X40.481 Y50.681 E0.03564
G1 X41.324 Y50.376 E0.02810
G1 X42.211 Y50.178 E0.02849
G1 X43.281 Y50.084 E0.03368
G1 X141.094 Y47.746 E3.06776
G1 X212.154 Y47.745 E2.22801
G1 X213.805 Y47.936 E0.05211
G1 X215.105 Y48.374 E0.04302
G1 X216.450 Y49.149 E0.04866
G1 X217.018 Y49.604 E0.02283
G1 X217.982 Y50.637 E0.04431
G1 X218.795 Y51.986 E0.04938
G1 X219.290 Y53.425 E0.04770
G1 X219.476 Y54.981 E0.04915
G1 X219.476 Y151.177 E3.01616
G1 X219.423 Y151.969 E0.02486
G1 X219.251 Y152.880 E0.02907
G1 X218.573 Y154.593 E0.05776
G1 X217.610 Y155.950 E0.05220
G1 X216.775 Y156.757 E0.03641
G1 X215.703 Y157.474 E0.04042
G1 X215.111 Y157.773 E0.02081
G1 X213.955 Y158.175 E0.03837
G1 X213.024 Y158.349 E0.02971
G1 X212.242 Y158.400 E0.02457
G1 X114.433 Y160.738 E3.06761
G1 X43.378 Y160.739 E2.22788
G1 X42.452 Y160.679 E0.02907
G1 X41.377 Y160.459 E0.03442
G1 X40.517 Y160.157 E0.02859
G1 X39.801 Y159.804 E0.02501
G1 X38.424 Y158.805 E0.05334
G1 X37.838 Y158.206 E0.02630
G1 X37.274 Y157.463 E0.02924
G1 X36.756 Y156.545 E0.03305
G1 X36.415 Y155.694 E0.02874
G1 X36.189 Y154.826 E0.02812
G1 X36.054 Y153.646 E0.03723
G1 X36.055 Y57.150 E3.02556
G1 X36.150 Y56.212 E0.02958
G1 X36.381 Y55.256 E0.03084
G1 F8640
G1 X36.974 Y53.853 E-0.35172
G1 X37.397 Y53.176 E-0.18418
G1 X37.959 Y52.479 E-0.20694
G1 X38.013 Y52.427 E-0.01717
G1 E-0.04000 F2100.00000
G1 Z0.800 F10800.000
G1 X154.603 Y134.170
G1 Z0.200
G1 E0.80000 F2100.00000
G1 F1800
G1 X155.695 Y134.166 E0.03424
G1 X155.695 Y50.648 E2.61866
G1 X155.820 Y50.101 E0.01756
G1 X156.164 Y49.489 E0.02203
G1 X156.789 Y48.895 E0.02703
G1 X157.123 Y48.710 E0.01196
G1 X157.786 Y48.523 E0.02162
G1 X195.479 Y48.523 E1.18181
G1 X196.023 Y48.646 E0.01751
G1 X196.542 Y48.920 E0.01838
G1 X197.116 Y49.471 E0.02496
G1 X197.370 Y49.850 E0.01429
G1 X197.603 Y50.615 E0.02507
G1 X197.603 Y134.170 E2.61983
G1 X198.695 Y134.166 E0.03424
G1 X198.695 Y50.655 E2.61844
G1 X198.744 Y50.327 E0.01037
G1 X199.085 Y49.598 E0.02525
G1 X199.643 Y49.011 E0.02540
G1 X200.118 Y48.712 E0.01760
G1 X200.786 Y48.523 E0.02179
G1 X212.184 Y48.523 E0.35736
G1 X212.893 Y48.565 E0.02228
G1 X213.853 Y48.750 E0.03065
G1 X214.848 Y49.105 E0.03313
G1 X216.044 Y49.807 E0.04348
G1 X217.106 Y50.792 E0.04542
G1 X217.904 Y51.944 E0.04393
G1 X218.483 Y53.403 E0.04920
G1 X218.700 Y55.009 E0.05082
G1 X218.700 Y151.108 E3.01311
G1 X218.654 Y151.854 E0.02345
G1 X218.527 Y152.576 E0.02298
G1 X217.965 Y154.088 E0.05057
G1 X217.387 Y155.008 E0.03405
G1 X216.657 Y155.804 E0.03389
G1 X216.137 Y156.268 E0.02184
G1 X215.257 Y156.841 E0.03293
G1 X213.776 Y157.418 E0.04985
G1 X212.214 Y157.625 E0.04938
G1 X141.091 Y157.624 E2.23004
G1 X140.365 Y157.575 E0.02280
G1 X139.659 Y157.454 E0.02245
G1 X138.147 Y156.895 E0.05057
G1 X136.986 Y156.131 E0.04356
G1 X136.113 Y155.262 E0.03861
G1 X135.410 Y154.231 E0.03914
G1 X134.811 Y152.725 E0.05082
G1 X134.725 Y152.321 E0.01294
G1 X134.598 Y151.133 E0.03746
G1 X134.598 Y55.035 E3.01311
G1 X134.664 Y54.167 E0.02727
G1 X134.830 Y53.354 E0.02602
G1 X135.194 Y52.343 E0.03370
G1 X136.089 Y50.914 E0.05286
G1 X136.961 Y50.037 E0.03877
G1 X137.991 Y49.335 E0.03909
G1 X139.377 Y48.772 E0.04691
G1 X139.836 Y48.661 E0.01482
G1 X141.088 Y48.523 E0.03950
G1 X152.521 Y48.526 E0.35845
G1 X152.964 Y48.624 E0.01423
G1 X153.412 Y48.831 E0.01548
G1 X154.102 Y49.456 E0.02920
G1 X154.414 Y49.945 E0.01818
G1 X154.603 Y50.614 E0.02179
G1 X154.603 Y134.110 E2.61798
G1 X154.226 Y134.549 F10800.000
G1 F1800
G1 X156.072 Y134.542 E0.05788
G1 X156.072 Y50.668 E2.62981
G1 X156.164 Y50.258 E0.01318
G1 X156.448 Y49.739 E0.01852
G1 X156.998 Y49.210 E0.02393
G1 X157.252 Y49.065 E0.00919
G1 X157.814 Y48.900 E0.01838
G1 X195.458 Y48.900 E1.18029
G1 X195.870 Y48.991 E0.01322
G1 X196.341 Y49.240 E0.01670
G1 X196.837 Y49.725 E0.02176
G1 X197.040 Y50.034 E0.01158
G1 X197.226 Y50.643 E0.01997
G1 X197.226 Y134.549 E2.63081
G1 X199.072 Y134.542 E0.05788
G1 X199.072 Y50.670 E2.62975
G1 X199.112 Y50.414 E0.00812
G1 X199.410 Y49.790 E0.02167
G1 X199.897 Y49.290 E0.02188
G1 X200.251 Y49.066 E0.01314
G1 X200.814 Y48.900 E0.01842
G1 X212.178 Y48.900 E0.35630
G1 X212.858 Y48.941 E0.02137
G1 X213.740 Y49.110 E0.02815
G1 X214.704 Y49.454 E0.03210
G1 X215.834 Y50.121 E0.04114
G1 X216.834 Y51.053 E0.04286
G1 X217.581 Y52.140 E0.04133
G1 X218.123 Y53.519 E0.04648
G1 X218.323 Y55.021 E0.04751
G1 X218.323 Y151.102 E3.01255
G1 X218.280 Y151.800 E0.02192
G1 X218.159 Y152.494 E0.02211
G1 X217.635 Y153.904 E0.04715
G1 X217.077 Y154.792 E0.03288
G1 X216.386 Y155.542 E0.03198
G1 X215.919 Y155.960 E0.01964
G1 X215.067 Y156.514 E0.03187
G1 X213.703 Y157.048 E0.04593
G1 X212.202 Y157.247 E0.04749
G1 X141.109 Y157.247 E2.22907
G1 X140.419 Y157.202 E0.02168
G1 X139.740 Y157.086 E0.02160
G1 X138.335 Y156.567 E0.04695
G1 X137.238 Y155.850 E0.04109
G1 X136.392 Y155.008 E0.03742
G1 X135.734 Y154.037 E0.03679
G1 X135.176 Y152.631 E0.04743
G1 X135.099 Y152.271 E0.01154
G1 X134.976 Y151.123 E0.03619
G1 X134.976 Y55.042 E3.01257
G1 X135.036 Y54.230 E0.02551
G1 X135.190 Y53.469 E0.02436
G1 X135.542 Y52.490 E0.03263
G1 X136.371 Y51.165 E0.04899
G1 X137.215 Y50.316 E0.03753
G1 X138.185 Y49.658 E0.03676
G1 X139.505 Y49.127 E0.04460
G1 X139.890 Y49.034 E0.01242
G1 X141.099 Y48.900 E0.03814
G1 X152.498 Y48.903 E0.35742
G1 X152.858 Y48.986 E0.01157
G1 X153.223 Y49.159 E0.01268
G1 X153.829 Y49.717 E0.02580
G1 X154.061 Y50.078 E0.01347
G1 X154.226 Y50.642 E0.01841
G1 X154.226 Y134.489 E2.62897
G1 F8640
G1 X156.072 Y134.542 E-0.42644
G1 X156.072 Y133.097 E-0.33356
G1 E-0.04000 F2100.00000
G1 Z0.800 F10800.000
G1 X196.849 Y134.927
G1 Z0.200
G1 E0.80000 F2100.00000
G1 F1800
G1 X199.450 Y134.917 E0.08153
G1 X199.450 Y50.686 E2.64103
G1 X199.479 Y50.503 E0.00579
G1 X199.734 Y49.987 E0.01806
G1 X200.149 Y49.571 E0.01841
G1 X200.388 Y49.417 E0.00892
G1 X200.844 Y49.277 E0.01496
G1 X212.172 Y49.277 E0.35519
G1 X212.823 Y49.316 E0.02045
G1 X213.627 Y49.470 E0.02565
G1 X214.560 Y49.803 E0.03106
G1 X215.623 Y50.435 E0.03878
G1 X216.560 Y51.314 E0.04029
G1 X217.257 Y52.334 E0.03873
G1 X217.764 Y53.634 E0.04376
G1 X217.946 Y55.033 E0.04423
G1 X217.946 Y151.096 E3.01199
G1 X217.905 Y151.765 E0.02103
G1 X217.790 Y152.412 E0.02059
G1 X217.305 Y153.720 E0.04374
G1 X216.768 Y154.576 E0.03171
G1 X216.115 Y155.279 E0.03006
G1 X215.701 Y155.652 E0.01747
G1 X214.878 Y156.187 E0.03078
G1 X213.588 Y156.688 E0.04338
G1 X212.190 Y156.870 E0.04422
G1 X141.127 Y156.870 E2.22813
G1 X140.473 Y156.829 E0.02056
G1 X139.821 Y156.717 E0.02074
G1 X138.523 Y156.240 E0.04336
G1 X137.490 Y155.568 E0.03863
G1 X136.694 Y154.781 E0.03509
G1 X136.057 Y153.842 E0.03555
G1 X135.541 Y152.536 E0.04405
G1 X135.473 Y152.220 E0.01013
G1 X135.353 Y151.113 E0.03491
G1 X135.353 Y55.048 E3.01203
G1 X135.408 Y54.292 E0.02378
G1 X135.549 Y53.583 E0.02267
G1 X135.890 Y52.636 E0.03155
G1 X136.654 Y51.415 E0.04516
G1 X137.442 Y50.618 E0.03515
G1 X138.380 Y49.982 E0.03553
G1 X139.608 Y49.490 E0.04147
G1 X139.944 Y49.407 E0.01087
G1 X141.109 Y49.277 E0.03676
G1 X152.476 Y49.280 E0.35641
G1 X152.715 Y49.336 E0.00767
G1 X153.035 Y49.487 E0.01109
G1 X153.553 Y49.975 E0.02233
G1 X153.709 Y50.216 E0.00898
G1 X153.849 Y50.671 E0.01495
G1 X153.849 Y134.927 E2.64179
G1 X156.450 Y134.917 E0.08153
G1 X156.450 Y50.687 E2.64097
G1 X156.510 Y50.409 E0.00892
G1 X156.733 Y49.987 E0.01497
G1 X157.210 Y49.522 E0.02089
G1 X157.387 Y49.418 E0.00643
G1 X157.844 Y49.277 E0.01500
G1 X195.439 Y49.277 E1.17875
G1 X195.717 Y49.337 E0.00892
G1 X196.139 Y49.560 E0.01496
G1 X196.555 Y49.976 E0.01845
G1 X196.709 Y50.215 E0.00892
G1 X196.849 Y50.671 E0.01496
G1 X196.849 Y134.867 E2.63991
G1 X196.472 Y135.306 F10800.000
G1 F1800
G1 X199.827 Y135.293 E0.10517
G1 X199.827 Y50.703 E2.65226
G1 X199.846 Y50.595 E0.00345
G1 X200.023 Y50.231 E0.01270
G1 X200.402 Y49.851 E0.01682
G1 X200.531 Y49.767 E0.00484
G1 X200.876 Y49.654 E0.01136
G1 X212.167 Y49.654 E0.35402
G1 X212.789 Y49.692 E0.01954
G1 X213.514 Y49.830 E0.02316
G1 X214.416 Y50.152 E0.03001
G1 X215.412 Y50.747 E0.03639
G1 X216.286 Y51.573 E0.03771
G1 X216.932 Y52.527 E0.03613
G1 X217.403 Y53.748 E0.04104
G1 X217.569 Y55.045 E0.04099
G1 X217.569 Y151.090 E3.01144
G1 X217.531 Y151.710 E0.01948
G1 X217.422 Y152.330 E0.01972
G1 X216.976 Y153.536 E0.04033
G1 X216.458 Y154.360 E0.03052
G1 X215.845 Y155.016 E0.02813
G1 X215.483 Y155.344 E0.01533
G1 X214.689 Y155.860 E0.02967
G1 X213.475 Y156.328 E0.04081
G1 X212.178 Y156.493 E0.04098
G1 X141.133 Y156.493 E2.22758
G1 X140.526 Y156.455 E0.01905
G1 X139.901 Y156.348 E0.01989
G1 X138.709 Y155.911 E0.03980
G1 X137.741 Y155.286 E0.03614
G1 X136.973 Y154.526 E0.03388
G1 X136.382 Y153.649 E0.03315
G1 X135.906 Y152.440 E0.04074
G1 X135.847 Y152.168 E0.00872
G1 X135.730 Y151.103 E0.03362
G1 X135.730 Y55.055 E3.01150
G1 X135.780 Y54.353 E0.02207
G1 X135.909 Y53.697 E0.02097
G1 X136.238 Y52.783 E0.03047
G1 X136.936 Y51.665 E0.04131
G1 X137.697 Y50.897 E0.03390
G1 X138.573 Y50.306 E0.03314
G1 X139.712 Y49.853 E0.03843
G1 X140.000 Y49.780 E0.00930
G1 X141.120 Y49.654 E0.03535
G1 X152.454 Y49.657 E0.35538
G1 X152.571 Y49.685 E0.00377
G1 X152.844 Y49.814 E0.00947
G1 X153.276 Y50.231 E0.01880
G1 X153.359 Y50.359 E0.00479
G1 X153.472 Y50.703 E0.01136
G1 X153.472 Y135.306 E2.65266
G1 X156.827 Y135.293 E0.10517
G1 X156.827 Y50.706 E2.65216
G1 X156.858 Y50.555 E0.00484
G1 X157.022 Y50.232 E0.01134
G1 X157.429 Y49.830 E0.01795
G1 X157.529 Y49.768 E0.00371
G1 X157.876 Y49.654 E0.01144
G1 X195.420 Y49.654 E1.17717
G1 X195.571 Y49.685 E0.00484
G1 X195.894 Y49.849 E0.01136
G1 X196.275 Y50.229 E0.01687
G1 X196.359 Y50.359 E0.00484
G1 X196.472 Y50.703 E0.01136
G1 X196.472 Y135.246 E2.65078
G1 F8640
G1 X199.763 Y135.292 E-0.76000
G1 E-0.04000 F2100.00000
G1 Z0.800 F10800.000
G1 X153.095 Y135.551
G1 Z0.200
G1 E0.80000 F2100.00000
G1 F1800
G1 X153.304 Y135.648 E0.00722
G1 X153.613 Y135.682 E0.00976
G1 X156.877 Y135.670 E0.10232
G1 X157.204 Y135.575 E0.01067
G1 X157.204 Y50.724 E2.66045
G1 X157.313 Y50.474 E0.00856
G1 X157.656 Y50.130 E0.01522
G1 X157.911 Y50.031 E0.00856
G1 X195.402 Y50.031 E1.17552
G1 X195.652 Y50.140 E0.00856
G1 X196.014 Y50.511 E0.01622
G1 X196.095 Y50.738 E0.00757
G1 X196.095 Y135.551 E2.65924
G1 X196.304 Y135.648 E0.00722
G1 X196.613 Y135.682 E0.00976
G1 X199.877 Y135.670 E0.10232
G1 X200.204 Y135.575 E0.01067
G1 X200.210 Y50.692 E2.66145
G1 X200.313 Y50.474 E0.00757
G1 X200.656 Y50.130 E0.01522
G1 X200.911 Y50.031 E0.00856
G1 X212.161 Y50.031 E0.35273
G1 X212.754 Y50.067 E0.01862
G1 X213.401 Y50.190 E0.02067
G1 X214.271 Y50.500 E0.02895
G1 X215.199 Y51.059 E0.03397
G1 X216.011 Y51.832 E0.03513
G1 X216.607 Y52.720 E0.03355
G1 X217.032 Y53.819 E0.03696
G1 X217.192 Y55.057 E0.03914
G1 X217.192 Y151.085 E3.01088
G1 X217.156 Y151.676 E0.01858
G1 X217.054 Y152.247 E0.01818
G1 X216.646 Y153.352 E0.03694
G1 X216.149 Y154.144 E0.02932
G1 X215.576 Y154.752 E0.02620
G1 X215.264 Y155.037 E0.01323
G1 X214.500 Y155.533 E0.02857
G1 X213.404 Y155.957 E0.03685
G1 X212.166 Y156.116 E0.03914
G1 X141.139 Y156.116 E2.22701
G1 X140.580 Y156.082 E0.01755
G1 X139.981 Y155.979 E0.01904
G1 X138.895 Y155.582 E0.03627
G1 X137.991 Y155.003 E0.03367
G1 X137.275 Y154.299 E0.03148
G1 X136.706 Y153.456 E0.03189
G1 X136.271 Y152.344 E0.03745
G1 X136.220 Y152.116 E0.00731
G1 X136.107 Y151.092 E0.03230
G1 X136.107 Y55.062 E3.01096
G1 X136.153 Y54.413 E0.02039
G1 X136.269 Y53.811 E0.01924
G1 X136.586 Y52.929 E0.02937
G1 X137.220 Y51.915 E0.03751
G1 X137.924 Y51.199 E0.03148
G1 X138.767 Y50.630 E0.03189
G1 X139.817 Y50.215 E0.03542
G1 X140.056 Y50.154 E0.00772
G1 X141.131 Y50.031 E0.03392
G1 X152.402 Y50.031 E0.35341
G1 X152.652 Y50.140 E0.00856
G1 X152.996 Y50.484 E0.01522
G1 X153.095 Y50.738 E0.00856
G1 X153.095 Y135.491 E2.65736
G1 X152.718 Y135.613 F10800.000
G1 F1800
G1 X152.754 Y135.731 E0.00389
G1 X152.850 Y135.837 E0.00450
G1 X153.111 Y135.981 E0.00933
G1 X153.242 Y136.020 E0.00429
G1 X153.593 Y136.059 E0.01108
G1 X156.927 Y136.047 E0.10453
G1 X157.248 Y135.959 E0.01042
G1 X157.520 Y135.776 E0.01029
G1 X157.581 Y135.611 E0.00550
G1 X157.581 Y50.780 E2.65983
G1 X157.609 Y50.711 E0.00235
G1 X157.883 Y50.437 E0.01215
G1 X157.953 Y50.408 E0.00235
G1 X195.346 Y50.408 E1.17245
G1 X195.415 Y50.437 E0.00235
G1 X195.689 Y50.711 E0.01215
G1 X195.718 Y50.780 E0.00235
G1 X195.718 Y135.613 E2.65987
G1 X195.754 Y135.731 E0.00389
G1 X195.850 Y135.837 E0.00450
G1 X196.111 Y135.981 E0.00933
G1 X196.242 Y136.020 E0.00429
G1 X196.593 Y136.059 E0.01108
G1 X199.927 Y136.047 E0.10453
G1 X200.248 Y135.959 E0.01042
G1 X200.520 Y135.776 E0.01029
G1 X200.581 Y135.611 E0.00550
G1 X200.581 Y50.780 E2.65983
G1 X200.609 Y50.711 E0.00235
G1 X200.883 Y50.437 E0.01215
G1 X200.953 Y50.408 E0.00235
G1 X212.155 Y50.408 E0.35123
G1 X212.719 Y50.443 E0.01771
G1 X213.289 Y50.550 E0.01819
G1 X214.126 Y50.849 E0.02787
G1 X214.985 Y51.371 E0.03152
G1 X215.734 Y52.089 E0.03255
G1 X216.282 Y52.911 E0.03095
G1 X216.672 Y53.932 E0.03428
G1 X216.815 Y55.069 E0.03592
G1 X216.815 Y151.079 E3.01034
G1 X216.783 Y151.621 E0.01702
G1 X216.685 Y152.164 E0.01731
G1 X216.316 Y153.168 E0.03354
G1 X215.839 Y153.927 E0.02810
G1 X215.307 Y154.488 E0.02425
G1 X215.045 Y154.729 E0.01117
G1 X214.312 Y155.206 E0.02742
G1 X213.291 Y155.596 E0.03426
G1 X212.154 Y155.739 E0.03592
G1 X141.144 Y155.739 E2.22648
G1 X140.633 Y155.708 E0.01605
G1 X140.062 Y155.610 E0.01818
G1 X139.079 Y155.253 E0.03278
G1 X138.240 Y154.720 E0.03116
G1 X137.553 Y154.044 E0.03022
G1 X137.031 Y153.264 E0.02943
G1 X136.636 Y152.246 E0.03425
G1 X136.594 Y152.063 E0.00588
G1 X136.484 Y151.081 E0.03097
G1 X136.484 Y55.068 E3.01043
G1 X136.525 Y54.472 E0.01874
G1 X136.629 Y53.924 E0.01749
G1 X136.934 Y53.076 E0.02826
G1 X137.503 Y52.164 E0.03370
G1 X138.179 Y51.477 E0.03021
G1 X138.959 Y50.955 E0.02943
G1 X139.925 Y50.576 E0.03253
G1 X140.113 Y50.527 E0.00612
G1 X141.142 Y50.408 E0.03246
G1 X152.346 Y50.408 E0.35131
G1 X152.415 Y50.437 E0.00235
G1 X152.689 Y50.711 E0.01215
G1 X152.718 Y50.780 E0.00235
G1 X152.718 Y135.553 E2.65799
G1 X152.363 Y135.783 F10800.000
G1 F1800
G1 X152.451 Y135.959 E0.00616
G1 X152.588 Y136.109 E0.00637
G1 X152.731 Y136.215 E0.00560
G1 X152.978 Y136.335 E0.00860
G1 X153.166 Y136.391 E0.00615
G1 X153.572 Y136.436 E0.01280
G1 X156.727 Y136.436 E0.09892
G1 X156.975 Y136.420 E0.00779
G1 X157.172 Y136.381 E0.00631
G1 X157.402 Y136.303 E0.00763
G1 X157.646 Y136.163 E0.00880
G1 X157.795 Y136.026 E0.00635
G1 X157.887 Y135.892 E0.00510
G1 X157.940 Y135.757 E0.00454
G1 X157.958 Y135.613 E0.00455
G1 X157.958 Y50.895 E2.65626
G1 X158.068 Y50.785 E0.00490
G1 X195.231 Y50.785 E1.16520
G1 X195.341 Y50.895 E0.00490
